X: 1
T: Her Long Dark Hair Flowing Down Her Back
M: 4/4
L: 1/8
K: Bb/Gm
Bc|:dcBd c2BG|FD~D2 FGBc|dcBd c2Bc|dggf g2fe|
dcBd c2BG|FD~D2 FGBc|dcBd cBGF|G2GF G2 Bc:||
dffg fdcd|BGFG B3c|dggf g2fe|dcBd ~c2Bc|
dffg fdcd|BGFG B3c|dcBd cBGF|G2GF G2 Bc:||
